X:136
T:Dry and Dusty
C:Traditional
N:Transcribed by Mike Stangeland
R:bluegrass
L:1/8
Q:1/4=219
M:4/4
K:E
z6 Bc |: "E"e2 eg (3fgf ef | ge fg z2 Bc | e2 eg (3fgf ef | g2 b4 Bc | e2 eg (3fgf e2 | 
be (3gbg e2 Bc | "B7"e2 c2 B2 G2 |1 F2 E4 Bc :|2 F2 E4 B,=C |: "E"CE2C E4 | GB zG B2 GA | 
Bc BG (3FGF EG | F2 E2 E2 B,=C | CE2C E4 | GB zG B2 GA | "B7"Bc BG (3FGF EG | 
|1 F2 E4 B,=C :|2 F2 E6 | z8 | 


